!!!SOCIAL_FUNCTION:	songs of the sun dance
!!!PDT:	1918

Specific Region: Dakotas, Minnesota, Montana, Nebraska
!!!REG: Dakotas and Montana
!!!LING_GROUP: Siouan
!!!LANG: Tone
!!!OTL@ENG: Wakangtangka, Pity Me
!!!ONM: No. 22
**kern
*Ifeme
*clefG2
*M2/4
*MM63
4a
8.b
16a
=1||
*M3/4
8a
8g
2e
=2||
*M2/4
4a
8.a
16g
=3
2a
=4
4a
8a
16a
16g
=5
2e
=6||
*M3/4
8.g
16a
8a
8g
4e
=7||
*M2/4
2d#
=8
2e
=9||
*M3/4
4e
16e
8.d#
4d#
=10||
*M2/4
4.B
8B
=11
[2B
=12
4.B]
8B
=13
4a
4a
=14
4.a
8g
=15||
*M3/4
4g
4.e
8e
=16||
*M2/4
8.a
16a
4a
=17
4a
8a
8g
=18
4e
4e
=19
4g
8a
16.g
32g
=20||
*M3/4
4e
4d#
8.d#
16e
=21
4e
4.e
8f
=22
16e
16e
8e
8d#
[8d#
4d#]
=23
2.B
==
*-
!!!CNT: Native American -- Sioux
!!!MRD: 1911/07//-1914///
!!!OCL: Frances Densmore
!!!YOR1: Teton Sioux Music, Bulletin 61,
!!!YOR2: Bureau of American Ethnology, Smithsonian Institution
!!!PPR: Government Printing Office
!!!PPP: Washington, D.C.
!!!PDT: 1918///
!!!ENC: Craig Stuart Sapp
!!!END: 2002/03/25/
!!!EEV: 2002/03/31/
!!!AGN: Ceremonial Song/Song of the Sun Dance
!!!MPN@@SIO: Tashi'naska'wing
!!!MPN@ENG: White Robe
!!!TXO: Teton Sioux
!!!MLC: Standing Rock Reservation, South Dakota, United States of America
!!!ARL: 45.9/-100.7#
!!!catalog: Catalogue No. 688
!!!PPG: 135
!!!EFL: 22/245
!!!VTS: 2920739751
